Papirus/22x22/panel/workrave-indicator.svg

<?xml version="1.0" encoding="UTF-8" standalone="no"?>
<svg id="svg2817" xmlns:rdf="http://www.w3.org/1999/02/22-rdf-syntax-ns#" xmlns="http://www.w3.org/2000/svg" height="22" width="22" version="1.0" xmlns:cc="http://creativecommons.org/ns#" xmlns:dc="http://purl.org/dc/elements/1.1/">
 <metadata id="metadata57">
  <rdf:RDF>
   <cc:Work rdf:about="">
    <dc:format>image/svg+xml</dc:format>
    <dc:type rdf:resource="http://purl.org/dc/dcmitype/StillImage"/>
    <dc:title/>
   </cc:Work>
  </rdf:RDF>
 </metadata>
 <path id="path4350" style="color:#000000;block-progression:tb;text-decoration-line:none;text-transform:none;text-indent:0" d="m11 3a4 4 0 0 0 -4 4 4 4 0 0 0 4 4 4 4 0 0 0 4 -4 4 4 0 0 0 -4 -4zm-1 2h2v1h1v2h-1v1h-2v-1h-1v-2h1v-1zm1 8c-8.0004 0.004-8 5.145-8 5.145v0.855h16v-0.855s0-5.149-8-5.145z" fill="#fff"/>
</svg>

<?xml version="1.0" encoding="UTF-8" standalone="no"?>
<svg xmlns:dc="http://purl.org/dc/elements/1.1/" xmlns:cc="http://creativecommons.org/ns#" xmlns:rdf="http://www.w3.org/1999/02/22-rdf-syntax-ns#" xmlns:svg="http://www.w3.org/2000/svg" xmlns="http://www.w3.org/2000/svg" version="1.0" width="22" height="22" id="svg2817">
    <metadata id="metadata57">
        <rdf:RDF>
            <cc:Work rdf:about="">
                <dc:format>
                    image/svg+xml
                </dc:format>
                <dc:type rdf:resource="http://purl.org/dc/dcmitype/StillImage"/>
                <dc:title/>
            </cc:Work>
        </rdf:RDF>
    </metadata>
    <path id="path4350" d="M 11 3 A 4 4 0 0 0 7 7 A 4 4 0 0 0 11 11 A 4 4 0 0 0 15 7 A 4 4 0 0 0 11 3 z M 10 5 L 12 5 L 12 6 L 13 6 L 13 8 L 12 8 L 12 9 L 10 9 L 10 8 L 9 8 L 9 6 L 10 6 L 10 5 z M 11 13 C 2.9995555 13.0043 3 18.144531 3 18.144531 L 3 19 L 19 19 L 19 18.144531 C 19 18.144531 18.999693 12.996146 11 13 z " style="color:#000000;text-indent:0;text-decoration:none;text-decoration-line:none;text-transform:none;block-progression:tb;fill:#ffffff;fill-opacity:1;opacity:1"/>
</svg>
